!!!COM: Obrecht, Jacob
!!!CDT: ~1450///-1505
!!!CNT@EN: Netherlands
!!!OTL: Parce Domine
!!!ONB: Probably not written by Obrecht.
!!!ONB: Alto part supposedly added later.
!!!AGN: motet
**kern	**kern	**kern	**kern
*Ivox	*Ivox	*Ivox	*Ivox
*M4/4	*M4/4	*M4/4	*M4/4
*MM132	*MM132	*MM132	*MM132
*>[A,A]	*>[A,A]	*>[A,A]	*>[A,A]
*>norep[A]	*>norep[A]	*>norep[A]	*>norep[A]
*>A	*>A	*>A	*>A
=1-	=1-	=1-	=1-
1r	[1e	1A	1a
=2	=2	=2	=2
1r	1e]	2.c	2g
.	.	.	2g
.	.	4B	.
=3	=3	=3	=3
1r	2c	2A	2.cc
.	2d	2G	.
.	.	.	4b
=4	=4	=4	=4
1r	2e	2c	2a
.	2f	2d	2a
=5	=5	=5	=5
[1E	4e	4.e	1g
.	4B	.	.
.	.	8d	.
.	4.e	8c	.
.	.	8B	.
.	.	[4e	.
.	8d	.	.
=6	=6	=6	=6
1E]	8c	4e]	2r
.	8B	.	.
.	4e	8d	.
.	.	8c	.
.	[2e	2B	[2g
=7	=7	=7	=7
1E	4e]	2r	4g]
.	8d	.	4a
.	8c	.	.
.	4B	2e	4b
.	4G	.	[4cc
=8	=8	=8	=8
2F	2A	2c	8cc]
.	.	.	8a
.	.	.	2cc
2F	2A	2d	.
.	.	.	8b
.	.	.	8a
=9	=9	=9	=9
[1E	2.B	2.e	[1g#
.	8c	8d	.
.	8d	8c	.
=10	=10	=10	=10
1E]	1e	1B	1g#]
=11	=11	=11	=11
1r	2.c	2.e	2.g
.	4B	4d	8a
.	.	.	8b
=12	=12	=12	=12
1r	4A	2e	4cc
.	4E	.	2b
.	4G	4d	.
.	4A	[4c	[4a
=13	=13	=13	=13
1r	2F	4c]	4a]
.	.	8B	8g
.	.	8A	8f
.	8C	2c	2e
.	8D	.	.
.	8E	.	.
.	8F	.	.
=14	=14	=14	=14
2r	2.G	2.B	1d
2G	.	.	.
.	4A	4c	.
=15	=15	=15	=15
2G	2.B	2d	2r
2E	.	2G	[2b
.	4e	.	.
=16	=16	=16	=16
1F	4d	1A	4b]
.	4c	.	4a
.	2d	.	[2a
=17	=17	=17	=17
1E	1e	1B	2a]
.	.	.	2g#
=18	=18	=18	=18
1r	2.c	2A	[1a
.	.	2A	.
.	4d	.	.
=19	=19	=19	=19
2r	2e	2.c	1a]
[2F	2f	.	.
.	.	8B	.
.	.	8A	.
=20	=20	=20	=20
2F]	2.f	2c	2r
[2F	.	2d	2a
.	8e	.	.
.	8d	.	.
=21	=21	=21	=21
2F]	2c	2.A	2.cc
[2F	2c	.	.
.	.	4B	4b
=22	=22	=22	=22
2F]	2F	2c	2a
2E	2G	2c	[2g
=23	=23	=23	=23
1D	4A	4d	2g]
.	8B	8c	.
.	8c	8B	.
.	2d	2A	2f#
=24	=24	=24	=24
1r	2B	4.G	2.g
.	.	8A	.
.	4G	4B	.
.	4A	4c	8f
.	.	.	8e
=25	=25	=25	=25
1r	4F	4A	4f
.	2C	2c	2e
.	[4G	[4B	[4d
=26	=26	=26	=26
1r	4G]	4B]	4d]
.	4A	2A	2c
.	2E	.	.
.	.	4G	4B
=27	=27	=27	=27
2r	2F	2.A	1A
[2F	2c	.	.
.	.	4B	.
=28	=28	=28	=28
2F]	2A	2c	2r
2D	2F	2d	2a
=29	=29	=29	=29
1E	1G	4B	2g
.	.	2e	.
.	.	.	2cc
.	.	8d	.
.	.	8c	.
=30	=30	=30	=30
1D	2r	8d	4b
.	.	8c	.
.	.	8B	2a
.	.	8A	.
.	2F	2B	.
.	.	.	8g
.	.	.	8f
=31	=31	=31	=31
1C	2.G	1c	4.e
.	.	.	8f
.	.	.	4g
.	8F	.	[4a
.	8E	.	.
=32	=32	=32	=32
1r	2.D	4.d	8a]
.	.	.	8g
.	.	.	8f
.	.	8c	8e
.	.	4d	4d
.	[4F	4c	[4a
=33	=33	=33	=33
1r	4F]	4d	4a]
.	4G	4B	2g
.	2D	2A	.
.	.	.	4f#
=34	=34	=34	=34
2r	2G	8G	1g
.	.	8A	.
.	.	8B	.
.	.	8c	.
2G	[2B	4d	.
.	.	4e	.
=35	=35	=35	=35
2G	2B]	4d	2r
.	.	2e	.
2E	2e	.	2g
.	.	8d	.
.	.	8c	.
=36	=36	=36	=36
1G	2d	4B	4.g
.	.	4G	.
.	.	.	8a
.	[2B	2d	4b
.	.	.	4cc
=37	=37	=37	=37
1r	4B]	4G	4dd
.	4c	2g	2ee
.	2c	.	.
.	.	8f	8dd
.	.	8e	8cc
=38	=38	=38	=38
2G	1r	4d	4b
.	.	4c	2cc
2G	.	2d	.
.	.	.	4b
=39	=39	=39	=39
2.A	4.e	4c	1cc
.	.	8d	.
.	8d	8e	.
.	4.c	4f	.
4G	.	[4e	.
.	8B	.	.
=40	=40	=40	=40
2F	2A	4e]	2r
.	.	4d	.
2E	2B	2e	2g
=41	=41	=41	=41
1F	4A	4r	4.a
.	2c	4.A	.
.	.	.	8b
.	.	.	4cc
.	.	8B	.
.	[4f	4c	[4a
=42	=42	=42	=42
1D	4f]	4d	4a]
.	4.d	4.f	4.dd
.	8e	8e	8cc
.	4f	8d	8b
.	.	8c	8a
=43	=43	=43	=43
[1E	2e	4B	4.g#
.	.	4c	.
.	.	.	8a
.	4e	4B	4b
.	[4B	[4e	4cc
=44	=44	=44	=44
1E]	4B]	4e]	4b
.	2e	8d	2a
.	.	8c	.
.	.	2B	.
.	4e	.	4g#
=45	=45	=45	=45
1AA;	2c	1A;	1a;
.	2e;	.	.
==:|!	==:|!	==:|!	==:|!
*-	*-	*-	*-
!!!ENC: Craig Stuart Sapp
!!!END: 2004/03/15/
